X: 181
T: Absalon, fili mi / Absalon, my son
N: Derived from Rue2030-Absalon_fili_mi.krn
C: Pierre de la Rue
%%abc-version 2.0
%%abcx-abcm2ps-target-version 5.9.1 (29 Sep 2008)
%%abc-creator hum2abc beta
%%abcx-conversion-date 2019/02/17 08:01:17
%%abc-edited-by Jesse Rodin
%%abc-edited-by Victoria Chang
%%abcx-initial-encoding-date 2011/03/15/
%%humdrum-veritas 3877674737
%%humdrum-veritas-data 3730551046
%%linebreak <none>
%%barnumbers 0
L: 1/4
M: 2/1
Q: 1/2=120
%%staves [1 2 3 4]
V: 1 clef=treble-8
V: 2 clef=bass
V: 3 clef=bass
V: 4 clef=bass
K: Ab
[V:1] B8 | 
[V:2] z8 | 
[V:3] z8 | 
[V:4] z8 | 
[V:1] c4=d4 | 
[V:2] z8 | 
[V:3] z8 | 
[V:4] z8 | 
[V:1] e4e4 | 
[V:2] E,8 | 
[V:3] z8 | 
[V:4] z8 | 
[V:1] =d8 | 
[V:2] F,4G,4 | 
[V:3] B,,8 | 
[V:4] z8 | 
[V:1] z2c2f4 | 
[V:2] A,4A,4 | 
[V:3] C,4=D,4 | 
[V:4] z8 | 
[V:1] g8 | 
[V:2] G,8 | 
[V:3] E,4E,4 | 
[V:4] E,,8 | 
[V:1] f3e=dcB2 | 
[V:2] z4G,4- | 
[V:3] =D,4z2D,2- | 
[V:4] F,,4G,,4 | 
[V:1] c8 | 
[V:2] G,2F,E,F,4 | 
[V:3] D,2C,B,,C,2=D,2 | 
[V:4] A,,4A,,4 | 
[V:1] B8- | 
[V:2] G,8 | 
[V:3] E,4=D,2E,2- | 
[V:4] G,,8- | 
[V:1] B8 | 
[V:2] z4G,4 | 
[V:3] E,2=D,C,E,2D,2 | 
[V:4] G,,8 | 
[V:1] G8 | 
[V:2] B,4B,4 | 
[V:3] E,4=D,4 | 
[V:4] z4G,,4 | 
[V:1] z2=d2f4 | 
[V:2] F,4F,4 | 
[V:3] z4=D,4 | 
[V:4] B,,4B,,4 | 
[V:1] f4c4 | 
[V:2] A,6G,F, | 
[V:3] F,4F,4 | 
[V:4] F,,4F,,4 | 
[V:1] c4e4- | 
[V:2] E,4z2E,2- | 
[V:3] C,4C,4 | 
[V:4] A,,6G,,F,, | 
[V:1] e2=dcB4- | 
[V:2] E,2F,2G,4- | 
[V:3] E,6=D,C, | 
[V:4] E,,8 | 
[V:1] B4z2G2 | 
[V:2] G,2A,2B,2E,2 | 
[V:3] B,,8 | 
[V:4] z4E,,4 | 
[V:1] c4B4 | 
[V:2] A,4G,4 | 
[V:3] z2F,2=D,2E,2- | 
[V:4] F,,4G,,4 | 
[V:1] E4A4 | 
[V:2] z8 | 
[V:3] E,2C,4=D,2- | 
[V:4] A,,4F,,4 | 
[V:1] G4z4 | 
[V:2] z8 | 
[V:3] D,B,,E,2=D,2E,2- | 
[V:4] G,,3A,,B,,2C,2- | 
[V:1] z8 | 
[V:2] z8 | 
[V:3] E,=D,C,B,,C,4 | 
[V:4] C,B,,B,,4=A,,2 | 
[V:1] z4B4 | 
[V:2] F,4G,4 | 
[V:3] B,,4z2B,,2 | 
[V:4] B,,4G,,4 | 
[V:1] c4=d4 | 
[V:2] A,4B,4 | 
[V:3] F,4=D,4 | 
[V:4] F,,4z4 | 
[V:1] e4c4 | 
[V:2] G,2A,4F,2- | 
[V:3] C,4F,4 | 
[V:4] z8 | 
[V:1] =d3ef2g2- | 
[V:2] F,2B,2A,2B,2- | 
[V:3] B,,4z4 | 
[V:4] z8 | 
[V:1] g2f4=e2 | 
[V:2] B,A,G,F,G,4 | 
[V:3] z8 | 
[V:4] z2A,,2B,,2C,2 | 
[V:1] f4z4 | 
[V:2] F,3G,A,F,G,2 | 
[V:3] z8 | 
[V:4] F,,2B,,2A,,2B,,2- | 
[V:1] z8 | 
[V:2] F,2A,4G,2- | 
[V:3] z8 | 
[V:4] B,,2A,,G,,F,,2E,,2 | 
[V:1] e4f4 | 
[V:2] G,F,E,4=D,2 | 
[V:3] z2B,,4A,,2 | 
[V:4] G,,4F,,4 | 
[V:1] g4f2g2- | 
[V:2] E,4z4 | 
[V:3] B,,2B,2A,2B,2 | 
[V:4] E,,4z4 | 
[V:1] g2fea2g2- | 
[V:2] z2B,2A,2B,2- | 
[V:3] B,2A,G,F,2E,2 | 
[V:4] z4z2E,,2- | 
[V:1] gfe4=d2 | 
[V:2] B,A,B,2C2B,2 | 
[V:3] G,4F,4 | 
[V:4] E,,F,,G,,2A,,2B,,2 | 
[V:1] e4=d2c2- | 
[V:2] G,3A,B,G,A,2- | 
[V:3] E,3F,G,2C,2 | 
[V:4] E,,4z2F,,2- | 
[V:1] c2BAG4 | 
[V:2] A,G,F,4=E,2 | 
[V:3] F,4G,4 | 
[V:4] F,,G,,A,,2B,,2C,2 | 
[V:1] F2c2=d2c2- | 
[V:2] F,8 | 
[V:3] A,3G,F,E,F,2- | 
[V:4] F,,8 | 
[V:1] cBB4=A2 | 
[V:2] F,4F,4 | 
[V:3] F,2E,=D,C,4 | 
[V:4] F,,4F,,4 | 
[V:1] B4z4 | 
[V:2] =D,3E,F,E,F,G, | 
[V:3] z2B,,3C,=D,E, | 
[V:4] B,,8 | 
[V:1] =d4=d4 | 
[V:2] =A,2B,2F,2B,2- | 
[V:3] F,2B,,C,=D,E,F,2- | 
[V:4] z4B,,4 | 
[V:1] e4=d4- | 
[V:2] B,2=A,2B,4 | 
[V:3] F,2E,2G,2F,2- | 
[V:4] C,4B,,4 | 
[V:1] d2=d2=d4 | 
[V:2] z4B,4 | 
[V:3] F,E,=D,C,B,,4 | 
[V:4] B,,4G,,4 | 
[V:1] z2e4=d2 | 
[V:2] C4B,4 | 
[V:3] z4F,4 | 
[V:4] A,,4B,,4 | 
[V:1] e8 | 
[V:2] B,4G,4 | 
[V:3] G,6F,E, | 
[V:4] E,,6E,2- | 
[V:1] f4g4- | 
[V:2] A,4B,4 | 
[V:3] F,4E,3F, | 
[V:4] E,2=D,2E,4 | 
[V:1] g2fe=d2f2- | 
[V:2] E,4B,4 | 
[V:3] G,A,G,4F,E, | 
[V:4] C,4B,,4- | 
[V:1] fe=dcB4- | 
[V:2] z2B,3A,G,F, | 
[V:3] =D,2F,3E,D,C, | 
[V:4] B,,4B,,4 | 
[V:1] B4z4 | 
[V:2] G,3F,/E,/F,4 | 
[V:3] B,,2E,4=D,2 | 
[V:4] B,,8 | 
[V:1] B8 | 
[V:2] E,3=D,C,2B,,2 | 
[V:3] E,4z2E,2- | 
[V:4] z4E,,4 | 
[V:1] c4B4 | 
[V:2] A,,4z2B,,2 | 
[V:3] E,2E,2E,4 | 
[V:4] A,,4G,,4 | 
[V:1] A4G2F2 | 
[V:2] C,2C,2A,,4 | 
[V:3] (3F,4C,4=D,4 | 
[V:4] F,,4F,,4 | 
[V:1] G8- | 
[V:2] C,4B,,4 | 
[V:3] E,8 | 
[V:4] E,,8- | 
[V:1] G8 | 
[V:2] z4E,4 | 
[V:3] C,4B,,3C, | 
[V:4] E,,8 | 
[V:1] z8 | 
[V:2] A,4G,4 | 
[V:3] D,2C,4B,,2- | 
[V:4] z8 | 
[V:1] A8 | 
[V:2] F,4F,4 | 
[V:3] B,,2A,,G,,A,,2B,,2 | 
[V:4] D,,8 | 
[V:1] G4B4 | 
[V:2] E,3F,G,4 | 
[V:3] C,4B,,3C, | 
[V:4] E,,4E,,4 | 
[V:1] A6G2 | 
[V:2] F,4z4 | 
[V:3] =D,E,F,4E,2- | 
[V:4] F,,3G,,A,,B,,C,2- | 
[V:1] G4z4 | 
[V:2] z8 | 
[V:3] E,=D,C,B,,C,4 | 
[V:4] C,B,,B,,4=A,,2 | 
[V:1] B8 | 
[V:2] D,8 | 
[V:3] B,,8 | 
[V:4] B,,8 | 
[V:1] G4B4 | 
[V:2] E,4E,4 | 
[V:3] B,,6C,2 | 
[V:4] E,,4G,,4 | 
[V:1] A4F2f2- | 
[V:2] F,3G,A,B,C2- | 
[V:3] D,4C,4 | 
[V:4] F,,8- | 
[V:1] f2e=dcBc2 | 
[V:2] CB,B,4=A,2 | 
[V:3] F,4z4 | 
[V:4] F,,8 | 
[V:1] B4f4 | 
[V:2] B,4B,,4 | 
[V:3] F,4F,4- | 
[V:4] B,,4z4 | 
[V:1] f6=d2- | 
[V:2] z4B,4 | 
[V:3] F,2=D,4B,,2 | 
[V:4] B,,4B,,4- | 
[V:1] d2B2B4 | 
[V:2] B,6G,2- | 
[V:3] B,,4z2B,,2 | 
[V:4] B,,2G,,4E,,2 | 
[V:1] z2B2e4- | 
[V:2] G,2E,2E,4 | 
[V:3] E,6C,2- | 
[V:4] E,,4z2E,,2 | 
[V:1] e2c4A2 | 
[V:2] z2E,2A,4- | 
[V:3] C,2A,,2A,,4 | 
[V:4] A,,6F,,2- | 
[V:1] A4d4- | 
[V:2] A,2F,4D,2 | 
[V:3] A,,2D,3E,F,2 | 
[V:4] F,,2D,,2D,,4 | 
[V:1] d2c2B4 | 
[V:2] D,4E,2D,2- | 
[V:3] B,,8 | 
[V:4] _G,,8 | 
[V:1] A2B4=A2 | 
[V:2] D,2C,B,,C,4 | 
[V:3] F,8 | 
[V:4] F,,8 | 
[V:1] B8 | 
[V:2] B,,8 | 
[V:3] _G,4F,4 | 
[V:4] z8 | 
[V:1] z4A4 | 
[V:2] F,4F,4 | 
[V:3] F,,3G,,A,,2B,,2 | 
[V:4] D,,8 | 
[V:1] G4B4 | 
[V:2] E,3F,G,4 | 
[V:3] C,4B,,3C, | 
[V:4] E,,4E,,4 | 
[V:1] A6G2 | 
[V:2] F,4z4 | 
[V:3] =D,E,F,4E,2- | 
[V:4] F,,3G,,A,,B,,C,2- | 
[V:1] G4z4 | 
[V:2] z8 | 
[V:3] E,=D,C,B,,C,4 | 
[V:4] C,B,,B,,4=A,,2 | 
[V:1] B8 | 
[V:2] D,8 | 
[V:3] B,,8 | 
[V:4] B,,8 | 
[V:1] G4B4 | 
[V:2] E,4E,4 | 
[V:3] B,,6C,2 | 
[V:4] E,,4G,,4 | 
[V:1] A4F2f2- | 
[V:2] F,3G,A,B,C2- | 
[V:3] D,4C,4 | 
[V:4] F,,8- | 
[V:1] f2e=dcBc2 | 
[V:2] CB,B,4=A,2 | 
[V:3] F,4z4 | 
[V:4] F,,8 | 
[V:1] B4f4 | 
[V:2] B,4B,,4 | 
[V:3] F,4F,4- | 
[V:4] B,,4z4 | 
[V:1] f6=d2- | 
[V:2] z4B,4 | 
[V:3] F,2=D,4B,,2 | 
[V:4] B,,4B,,4- | 
[V:1] d2B2B4 | 
[V:2] B,6G,2- | 
[V:3] B,,4z2B,,2 | 
[V:4] B,,2G,,4E,,2 | 
[V:1] z2B2e4- | 
[V:2] G,2E,2E,4 | 
[V:3] E,6C,2- | 
[V:4] E,,4z2E,,2 | 
[V:1] e2c4A2 | 
[V:2] z2E,2A,4- | 
[V:3] C,2A,,2A,,4- | 
[V:4] A,,6F,,2- | 
[V:1] A4d4- | 
[V:2] A,2F,4D,2 | 
[V:3] A,,2D,3E,F,2 | 
[V:4] F,,2D,,2D,,4 | 
[V:1] d2c2B3A/B/ | 
[V:2] D,4E,2D,2- | 
[V:3] B,,8 | 
[V:4] _G,,8 | 
[V:1] A2B4=A2 | 
[V:2] D,2C,B,,C,4 | 
[V:3] F,8 | 
[V:4] F,,8 | 
[V:1] B8 |]  
[V:2] B,,8 |]  
[V:3] F,8 |]  
[V:4] B,,,8 |]  



